X:33
T:A dombói torony tetejére
M:4/4
L:1/4
K:F
F<A EG | DF A<E | D2 D z |
f>f e<d | c>A B<d | A2 A z |
f>f e<d | c>A B<d | A2 G2 |
FAEG | DF A<E | D2 D z |

